X:1
T:Piloune
C:Frederic Paris
A:France
Z:abc transcription Simon Wascher
M:2/4
L:1/8
K:Gm
G3/2^F/2 GA | ^F3G | A3/2G/2 AB | A4 |\
G3/2^F/2 GA | ^F3/2G/2 Ac | B3/2G/2 A^F | G4 :|
|:\
B3/2c/2 dB | A3/2B/2 cA | G3/2d/2 cB | B2 A2 |\
B3/2c/2 dB | A3/2B/2 cA | G3/2c/2 B^F | A2 G2 :|
